X:115
M:4/4
L:1/4
K:C
D2 A A | E G F E | D z/ D/ A B | c d (c B) | A4 | D2 A A | E G F E | D z/ D/ A B | c d (c B) | A z/ A/ d d | c B c A | G z/ G/ c B | A G A F | E z/ !sintro!D/ F G | A F E2 | D4 !eintro!|]
